build/img/twitter.svg

<svg width="18" height="18" viewBox="0 0 18 18" fill="none" xmlns="http://www.w3.org/2000/svg">
<g clip-path="url(#clip0_5935_4433)">
<path d="M18.25 4.10135C17.6156 4.37195 16.9342 4.5548 16.2178 4.63744C16.957 4.21163 17.51 3.54146 17.7737 2.75197C17.0792 3.1491 16.3191 3.42863 15.5264 3.57842C14.9934 3.03052 14.2874 2.66737 13.518 2.54534C12.7486 2.42331 11.9589 2.54923 11.2715 2.90355C10.584 3.25787 10.0374 3.82077 9.71628 4.50485C9.39521 5.18893 9.31772 5.95592 9.49585 6.68674C8.08863 6.61872 6.71198 6.2666 5.45527 5.65324C4.19855 5.03988 3.08984 4.17899 2.2011 3.12643C1.89722 3.63108 1.72249 4.21617 1.72249 4.8393C1.72215 5.40025 1.86564 5.95262 2.14023 6.44738C2.41483 6.94215 2.81203 7.36401 3.29661 7.67555C2.73463 7.65833 2.18505 7.51215 1.69362 7.24916V7.29304C1.69356 8.07981 1.97625 8.84236 2.49373 9.45131C3.01121 10.0603 3.7316 10.4781 4.53266 10.6339C4.01133 10.7698 3.46476 10.7898 2.93422 10.6924C3.16024 11.3694 3.60049 11.9614 4.19334 12.3855C4.7862 12.8096 5.50198 13.0447 6.24049 13.0577C4.98684 14.0051 3.43859 14.519 1.8448 14.5168C1.56248 14.5169 1.28039 14.501 1 14.4692C2.61779 15.4706 4.50101 16.0021 6.42434 16C12.9351 16 16.4943 10.8087 16.4943 6.30643C16.4943 6.16015 16.4905 6.01241 16.4837 5.86614C17.176 5.38415 17.7736 4.78729 18.2485 4.10354L18.25 4.10135Z" fill="#1F2128"/>
</g>
<defs>
<clipPath id="clip0_5935_4433">
<rect width="18" height="18" fill="white"/>
</clipPath>
</defs>
</svg>

<svg width="18" height="18" fill="none" xmlns="http://www.w3.org/2000/svg"><g clip-path="url(#a)"><path d="M18.25 4.101a7.303 7.303 0 0 1-2.032.536 3.442 3.442 0 0 0 1.556-1.885 7.234 7.234 0 0 1-2.248.826 3.584 3.584 0 0 0-2.008-1.033 3.66 3.66 0 0 0-2.247.359 3.464 3.464 0 0 0-1.555 1.6 3.291 3.291 0 0 0-.22 2.183 10.357 10.357 0 0 1-4.04-1.034A9.989 9.989 0 0 1 2.2 3.126a3.309 3.309 0 0 0-.06 3.321c.274.495.671.917 1.156 1.229a3.635 3.635 0 0 1-1.603-.427v.044c0 .787.282 1.55.8 2.158a3.566 3.566 0 0 0 2.039 1.183 3.696 3.696 0 0 1-1.599.058 3.416 3.416 0 0 0 1.26 1.694 3.627 3.627 0 0 0 2.046.672 7.28 7.28 0 0 1-4.395 1.459 7.44 7.44 0 0 1-.845-.048A10.293 10.293 0 0 0 6.424 16c6.511 0 10.07-5.191 10.07-9.694 0-.146-.003-.294-.01-.44a7.052 7.052 0 0 0 1.764-1.762l.002-.003Z" fill="#1F2128"/></g><defs><clipPath id="a"><path fill="#fff" d="M0 0h18v18H0z"/></clipPath></defs></svg>
